images/icon-facility-item-6.svg

<svg width="50" height="51" viewBox="0 0 50 51" fill="none" xmlns="http://www.w3.org/2000/svg">
<path d="M4.16687 25.6875C4.1663 21.7752 5.26752 17.9419 7.34442 14.6264C9.42132 11.311 12.3899 8.64742 15.9103 6.94079C19.4307 5.23417 23.3606 4.55345 27.2499 4.97659C31.1392 5.39973 34.8307 6.90962 37.9017 9.33337H34.7327C34.4582 9.33602 34.1958 9.44694 34.0026 9.642C33.8094 9.83706 33.7011 10.1005 33.7011 10.375C33.7011 10.6495 33.8094 10.913 34.0026 11.108C34.1958 11.3031 34.4582 11.414 34.7327 11.4167H40.6252C40.9014 11.4167 41.1664 11.3069 41.3618 11.1116C41.5571 10.9162 41.6669 10.6512 41.6669 10.375V4.48229C41.6682 4.34465 41.6422 4.20811 41.5905 4.08056C41.5387 3.95302 41.4622 3.83699 41.3654 3.73919C41.2685 3.64139 41.1532 3.56375 41.0262 3.51077C40.8991 3.45779 40.7629 3.43051 40.6252 3.43051C40.4876 3.43051 40.3513 3.45779 40.2242 3.51077C40.0972 3.56375 39.9819 3.64139 39.8851 3.73919C39.7882 3.83699 39.7117 3.95302 39.6599 4.08056C39.6082 4.20811 39.5822 4.34465 39.5836 4.48229V8.00963C35.0414 4.26269 29.2313 2.40786 23.3583 2.82984C17.4852 3.25182 11.9999 5.91823 8.04013 10.276C4.08032 14.6339 1.94983 20.3487 2.09054 26.2352C2.23125 32.1217 4.63236 37.7281 8.79587 41.8918C8.89218 41.9903 9.00708 42.0688 9.13393 42.1226C9.26077 42.1764 9.39704 42.2046 9.53483 42.2054C9.67262 42.2062 9.80921 42.1796 9.93666 42.1272C10.0641 42.0749 10.1799 41.9977 10.2774 41.9003C10.3748 41.8029 10.4519 41.6871 10.5043 41.5596C10.5567 41.4321 10.5832 41.2956 10.5824 41.1578C10.5816 41.02 10.5535 40.8837 10.4997 40.7569C10.4458 40.63 10.3674 40.5151 10.2688 40.4188C8.32821 38.4888 6.78968 36.193 5.74228 33.6643C4.69488 31.1357 4.15941 28.4244 4.16687 25.6875Z" fill="url(#paint0_linear_335_18109)"/>
<path d="M15.8959 44.4329C15.3049 44.1455 14.7199 43.8255 14.1576 43.4828C13.9218 43.3388 13.6385 43.2945 13.37 43.3594C13.1015 43.4244 12.8697 43.5933 12.7258 43.8291C12.5819 44.0649 12.5375 44.3482 12.6024 44.6167C12.6674 44.8852 12.8364 45.117 13.0721 45.2609C13.6912 45.6388 14.335 45.9903 14.9856 46.3066C15.1087 46.3664 15.2423 46.4013 15.3788 46.4095C15.5153 46.4176 15.6522 46.3988 15.7814 46.3541C15.9107 46.3094 16.0299 46.2396 16.1322 46.1488C16.2345 46.058 16.3179 45.948 16.3777 45.825C16.4375 45.7019 16.4725 45.5683 16.4806 45.4318C16.4888 45.2952 16.4699 45.1584 16.4252 45.0292C16.3805 44.8999 16.3107 44.7807 16.2199 44.6784C16.1292 44.5761 16.0191 44.4926 15.8961 44.4329H15.8959Z" fill="url(#paint1_linear_335_18109)"/>
<path d="M43.7549 16.6024C43.8145 16.7256 43.8978 16.8357 44 16.9266C44.1022 17.0176 44.2213 17.0875 44.3506 17.1323C44.4798 17.1772 44.6166 17.1962 44.7531 17.1883C44.8897 17.1803 45.0234 17.1455 45.1465 17.0858C45.2696 17.0262 45.3798 16.9429 45.4707 16.8407C45.5616 16.7385 45.6315 16.6194 45.6764 16.4902C45.7213 16.3609 45.7403 16.2241 45.7323 16.0876C45.7243 15.951 45.6895 15.8174 45.6299 15.6942C45.316 15.0457 44.9651 14.4019 44.5872 13.7802C44.5161 13.6633 44.4227 13.5615 44.3122 13.4808C44.2018 13.4 44.0766 13.3417 43.9436 13.3094C43.6752 13.244 43.3917 13.2879 43.1557 13.4315C42.9196 13.5751 42.7502 13.8066 42.6849 14.0751C42.6195 14.3436 42.6634 14.627 42.807 14.8631C43.1506 15.4282 43.4695 16.0135 43.7549 16.6024Z" fill="url(#paint2_linear_335_18109)"/>
<path d="M27.471 46.3749C26.8134 46.453 26.1481 46.4995 25.493 46.5153C25.2217 46.5257 24.9652 46.6415 24.7782 46.8382C24.5911 47.0349 24.4881 47.2968 24.4913 47.5682C24.4944 47.8397 24.6034 48.0992 24.7951 48.2914C24.9867 48.4837 25.2458 48.5936 25.5172 48.5976C25.5253 48.5976 25.534 48.5976 25.5421 48.5971C26.2623 48.5803 26.9932 48.5288 27.7154 48.4435C27.9896 48.4109 28.2395 48.2707 28.4104 48.0539C28.5813 47.837 28.6591 47.5612 28.6267 47.2871C28.5944 47.0129 28.4545 46.7628 28.2379 46.5917C28.0212 46.4206 27.7455 46.3424 27.4713 46.3745L27.471 46.3749Z" fill="url(#paint3_linear_335_18109)"/>
<path d="M21.5432 46.2335C20.8952 46.1252 20.2437 45.9842 19.6069 45.8135C19.3399 45.7422 19.0555 45.7798 18.8163 45.9181C18.5771 46.0564 18.4026 46.2841 18.3312 46.5511C18.2599 46.818 18.2975 47.1024 18.4358 47.3417C18.5741 47.5809 18.8018 47.7554 19.0688 47.8267C19.7697 48.0139 20.4869 48.169 21.2004 48.288C21.3354 48.3106 21.4734 48.3063 21.6067 48.2754C21.7399 48.2446 21.8658 48.1878 21.9771 48.1083C22.0885 48.0288 22.183 47.9282 22.2555 47.8121C22.3279 47.6961 22.3767 47.5669 22.3993 47.432C22.4218 47.2971 22.4175 47.159 22.3866 47.0258C22.3558 46.8925 22.299 46.7666 22.2195 46.6553C22.14 46.544 22.0394 46.4494 21.9233 46.377C21.8073 46.3045 21.6781 46.2557 21.5432 46.2332V46.2335Z" fill="url(#paint4_linear_335_18109)"/>
<path d="M46.8941 25.1852C46.618 25.1785 46.3504 25.2817 46.1504 25.4722C45.9503 25.6626 45.834 25.9247 45.827 26.2009C45.8102 26.8596 45.7625 27.5248 45.6841 28.1789C45.6514 28.4532 45.729 28.7293 45.8998 28.9465C46.0707 29.1636 46.3207 29.3041 46.595 29.337C46.6365 29.3416 46.6783 29.344 46.7201 29.3441C46.9747 29.3437 47.2204 29.2502 47.4107 29.081C47.601 28.9119 47.7228 28.679 47.7531 28.4262C47.8386 27.7075 47.8915 26.9766 47.9094 26.2528C47.9128 26.1161 47.8893 25.9799 47.8402 25.8523C47.791 25.7246 47.7172 25.6078 47.6229 25.5087C47.5287 25.4095 47.4158 25.3299 47.2907 25.2744C47.1657 25.2189 47.0309 25.1886 46.8941 25.1852Z" fill="url(#paint5_linear_335_18109)"/>
<path d="M43.6963 37.1C43.4677 36.9451 43.1869 36.8871 42.9157 36.9389C42.6444 36.9907 42.4047 37.1479 42.2492 37.3762C41.8789 37.9209 41.4786 38.4545 41.0585 38.9616C40.9692 39.0666 40.9016 39.1884 40.8597 39.3198C40.8179 39.4512 40.8025 39.5896 40.8145 39.7269C40.8265 39.8643 40.8657 39.9979 40.9298 40.12C40.9939 40.2421 41.0816 40.3503 41.1878 40.4382C41.2941 40.5262 41.4167 40.5922 41.5486 40.6323C41.6805 40.6725 41.8191 40.6861 41.9563 40.6722C42.0935 40.6584 42.2266 40.6175 42.3479 40.5518C42.4691 40.4861 42.5762 40.397 42.6627 40.2897C43.1245 39.7323 43.5655 39.1457 43.9724 38.5466C44.0492 38.4335 44.1031 38.3064 44.1308 38.1725C44.1585 38.0385 44.1596 37.9005 44.134 37.7662C44.1083 37.6318 44.0565 37.5039 43.9814 37.3896C43.9063 37.2753 43.8094 37.1769 43.6963 37.1Z" fill="url(#paint6_linear_335_18109)"/>
<path d="M45.1316 20.3134C45.3004 20.9477 45.4408 21.5992 45.5491 22.2502C45.5895 22.4934 45.7148 22.7144 45.9027 22.8739C46.0906 23.0334 46.329 23.1212 46.5755 23.1215C46.6329 23.1214 46.6902 23.1166 46.7469 23.1073C46.8819 23.0849 47.0111 23.0361 47.1272 22.9638C47.2434 22.8914 47.3441 22.7969 47.4237 22.6856C47.5033 22.5744 47.5602 22.4485 47.5911 22.3152C47.622 22.1819 47.6264 22.0439 47.6039 21.9089C47.4854 21.1928 47.3305 20.4753 47.1449 19.7773C47.0739 19.5103 46.8996 19.2825 46.6606 19.144C46.4215 19.0055 46.1373 18.9677 45.8703 19.0387C45.6033 19.1098 45.3755 19.2841 45.237 19.5231C45.0985 19.7622 45.0607 20.0464 45.1318 20.3134H45.1316Z" fill="url(#paint7_linear_335_18109)"/>
<path d="M38.2563 41.7606C37.7471 42.1818 37.2136 42.582 36.671 42.9498C36.5578 43.0266 36.4608 43.1249 36.3855 43.2391C36.3103 43.3533 36.2583 43.4812 36.2325 43.6156C36.2068 43.7499 36.2077 43.888 36.2353 44.0219C36.2628 44.1559 36.3165 44.2831 36.3933 44.3963C36.47 44.5096 36.5683 44.6065 36.6826 44.6818C36.7968 44.757 36.9247 44.809 37.059 44.8348C37.1934 44.8606 37.3315 44.8596 37.4654 44.8321C37.5994 44.8045 37.7266 44.7508 37.8398 44.674C38.437 44.2696 39.0234 43.8297 39.5839 43.3669C39.7969 43.1909 39.9312 42.9374 39.9573 42.6623C39.9835 42.3872 39.8993 42.113 39.7232 41.9C39.5472 41.687 39.2937 41.5527 39.0186 41.5265C38.7435 41.5004 38.4693 41.5846 38.2563 41.7606Z" fill="url(#paint8_linear_335_18109)"/>
<path d="M46.1504 31.3724C45.8872 31.2888 45.6016 31.313 45.3563 31.4398C45.111 31.5665 44.9259 31.7854 44.8418 32.0484C44.6424 32.6734 44.4095 33.2976 44.1495 33.9043C44.0927 34.0305 44.0616 34.1667 44.058 34.305C44.0544 34.4433 44.0784 34.5809 44.1286 34.7099C44.1788 34.8388 44.2541 34.9564 44.3503 35.0559C44.4464 35.1554 44.5615 35.2347 44.6886 35.2892C44.8158 35.3438 44.9525 35.3724 45.0909 35.3735C45.2292 35.3746 45.3664 35.3481 45.4944 35.2956C45.6224 35.2431 45.7386 35.1656 45.8364 35.0677C45.9341 34.9698 46.0113 34.8533 46.0636 34.7252C46.3505 34.0574 46.6068 33.3693 46.826 32.6811C46.8676 32.5508 46.8832 32.4136 46.8717 32.2773C46.8603 32.141 46.8221 32.0083 46.7594 31.8867C46.6966 31.7652 46.6106 31.6572 46.5061 31.569C46.4016 31.4807 46.2807 31.4139 46.1504 31.3724Z" fill="url(#paint9_linear_335_18109)"/>
<path d="M33.1969 44.8458C32.5962 45.1032 31.9716 45.3357 31.3404 45.5371C31.2101 45.5786 31.0892 45.6454 30.9847 45.7337C30.8803 45.8219 30.7942 45.9299 30.7314 46.0514C30.6686 46.1729 30.6304 46.3056 30.6189 46.4419C30.6074 46.5782 30.6229 46.7154 30.6644 46.8457C30.706 46.9761 30.7728 47.0969 30.861 47.2014C30.9493 47.3059 31.0573 47.392 31.1788 47.4548C31.3003 47.5175 31.433 47.5558 31.5693 47.5673C31.7056 47.5787 31.8428 47.5633 31.9731 47.5217C32.6674 47.3004 33.3551 47.0447 34.0168 46.7614C34.2708 46.6526 34.4712 46.4474 34.5739 46.1908C34.6766 45.9343 34.6732 45.6475 34.5644 45.3935C34.4556 45.1394 34.2504 44.939 33.9938 44.8363C33.7373 44.7336 33.4505 44.7371 33.1965 44.8458H33.1969Z" fill="url(#paint10_linear_335_18109)"/>
<path d="M16.1903 23.5594C16.1903 21.8522 15.0678 20.4842 13.3304 20.074C12.3759 19.848 11.373 19.9521 10.4853 20.3695C9.5977 20.7868 8.87773 21.4927 8.44297 22.372C8.32123 22.6189 8.30217 22.904 8.38995 23.1649C8.47772 23.4258 8.66521 23.6414 8.91144 23.7645C9.15766 23.8876 9.44261 23.9083 9.70402 23.822C9.96543 23.7356 10.182 23.5494 10.3065 23.3038C10.5289 22.8423 10.903 22.4711 11.3663 22.2522C11.8296 22.0334 12.3539 21.9803 12.8517 22.1017C13.1462 22.1711 14.1069 22.4819 14.1069 23.5594C14.1069 24.6458 12.8521 25.4838 11.5236 26.3711C10.0277 27.3696 8.33301 28.5012 8.33301 30.375C8.33301 30.6513 8.44276 30.9163 8.63811 31.1116C8.83347 31.307 9.09843 31.4167 9.37471 31.4167H15.1486C15.2863 31.4181 15.4228 31.3921 15.5504 31.3403C15.6779 31.2886 15.7939 31.2121 15.8917 31.1152C15.9895 31.0184 16.0672 30.9031 16.1202 30.776C16.1731 30.649 16.2004 30.5127 16.2004 30.3751C16.2004 30.2374 16.1731 30.1011 16.1202 29.9741C16.0672 29.8471 15.9895 29.7318 15.8917 29.6349C15.7939 29.5381 15.6779 29.4615 15.5504 29.4098C15.4228 29.358 15.2863 29.3321 15.1486 29.3334H11.0217C11.4581 28.9199 12.075 28.5079 12.6803 28.1035C14.3259 27.0049 16.1903 25.7598 16.1903 23.5594Z" fill="url(#paint11_linear_335_18109)"/>
<path d="M26.0414 26.9895C26.0414 26.7133 25.9316 26.4483 25.7363 26.253C25.5409 26.0577 25.276 25.9479 24.9997 25.9479H24.1533V20.4141C24.1533 20.1983 24.0863 19.9879 23.9616 19.8119C23.8368 19.6359 23.6605 19.5029 23.457 19.4314C23.2535 19.3598 23.0327 19.3533 22.8253 19.4125C22.6179 19.4718 22.434 19.594 22.2989 19.7623L17.0255 26.3381C16.9028 26.4913 16.8259 26.676 16.8036 26.871C16.7813 27.066 16.8146 27.2633 16.8995 27.4402C16.9844 27.6172 17.1176 27.7665 17.2837 27.8711C17.4498 27.9756 17.642 28.0312 17.8383 28.0312H22.07V30.9609C22.0687 31.0986 22.0947 31.2351 22.1464 31.3627C22.1982 31.4902 22.2747 31.6062 22.3715 31.704C22.4684 31.8018 22.5837 31.8795 22.7107 31.9324C22.8378 31.9854 22.974 32.0127 23.1117 32.0127C23.2493 32.0127 23.3856 31.9854 23.5127 31.9324C23.6397 31.8795 23.755 31.8018 23.8518 31.704C23.9487 31.6062 24.0252 31.4902 24.077 31.3627C24.1287 31.2351 24.1547 31.0986 24.1533 30.9609V28.0312H24.9997C25.276 28.0312 25.541 27.9215 25.7363 27.7261C25.9317 27.5308 26.0414 27.2658 26.0414 26.9895ZM22.07 25.9479H20.0095L22.07 23.3778V25.9479Z" fill="url(#paint12_linear_335_18109)"/>
<path d="M31.373 18.8069C31.2388 18.7797 31.1006 18.7794 30.9664 18.8058C30.8321 18.8322 30.7043 18.8849 30.5904 18.9608C30.4765 19.0367 30.3788 19.1344 30.3027 19.2482C30.2266 19.362 30.1738 19.4897 30.1472 19.6239L27.8035 31.3427C27.7492 31.6136 27.8048 31.8949 27.958 32.1248C28.1112 32.3546 28.3495 32.5143 28.6204 32.5685C28.6879 32.5819 28.7566 32.5887 28.8254 32.5888C29.066 32.5885 29.2991 32.505 29.4851 32.3524C29.6711 32.1998 29.7985 31.9875 29.8458 31.7516L32.1895 20.0328C32.2164 19.8987 32.2167 19.7606 32.1902 19.6264C32.1638 19.4922 32.1111 19.3645 32.0353 19.2507C31.9595 19.1368 31.8619 19.039 31.7483 18.9629C31.6347 18.8867 31.5071 18.8337 31.373 18.8069Z" fill="url(#paint13_linear_335_18109)"/>
<path d="M36.7186 31.4171C36.9243 31.417 37.1254 31.3561 37.2966 31.2419C37.4677 31.1278 37.6013 30.9656 37.6804 30.7757L41.5867 21.4007C41.6527 21.2424 41.6787 21.0703 41.6622 20.8996C41.6457 20.7289 41.5873 20.5649 41.4922 20.4221C41.3971 20.2794 41.2682 20.1624 41.117 20.0815C40.9657 20.0005 40.7969 19.9582 40.6254 19.9583H35.3519C35.0774 19.9609 34.815 20.0718 34.6219 20.2669C34.4287 20.4619 34.3203 20.7254 34.3203 20.9999C34.3203 21.2744 34.4287 21.5379 34.6219 21.7329C34.815 21.928 35.0774 22.0389 35.3519 22.0416H39.0629L35.7578 29.9746C35.6921 30.1329 35.6663 30.3049 35.6829 30.4755C35.6995 30.6461 35.7579 30.81 35.8529 30.9526C35.9479 31.0953 36.0766 31.2123 36.2276 31.2934C36.3786 31.3745 36.5472 31.4171 36.7186 31.4175V31.4171Z" fill="url(#paint14_linear_335_18109)"/>
<defs>
<linearGradient id="paint0_linear_335_18109" x1="2.08398" y1="22.4881" x2="41.6669" y2="22.4881" gradientUnits="userSpaceOnUse">
<stop stop-color="#1956C1"/>
<stop offset="1" stop-color="#E2403B"/>
</linearGradient>
<linearGradient id="paint1_linear_335_18109" x1="12.5732" y1="44.8708" x2="16.4825" y2="44.8708" gradientUnits="userSpaceOnUse">
<stop stop-color="#1956C1"/>
<stop offset="1" stop-color="#E2403B"/>
</linearGradient>
<linearGradient id="paint2_linear_335_18109" x1="42.6553" y1="15.2349" x2="45.7341" y2="15.2349" gradientUnits="userSpaceOnUse">
<stop stop-color="#1956C1"/>
<stop offset="1" stop-color="#E2403B"/>
</linearGradient>
<linearGradient id="paint3_linear_335_18109" x1="24.4912" y1="47.4825" x2="28.6339" y2="47.4825" gradientUnits="userSpaceOnUse">
<stop stop-color="#1956C1"/>
<stop offset="1" stop-color="#E2403B"/>
</linearGradient>
<linearGradient id="paint4_linear_335_18109" x1="18.2959" y1="47.0402" x2="22.4134" y2="47.0402" gradientUnits="userSpaceOnUse">
<stop stop-color="#1956C1"/>
<stop offset="1" stop-color="#E2403B"/>
</linearGradient>
<linearGradient id="paint5_linear_335_18109" x1="45.6768" y1="27.2645" x2="47.9097" y2="27.2645" gradientUnits="userSpaceOnUse">
<stop stop-color="#1956C1"/>
<stop offset="1" stop-color="#E2403B"/>
</linearGradient>
<linearGradient id="paint6_linear_335_18109" x1="40.8105" y1="38.7989" x2="44.1524" y2="38.7989" gradientUnits="userSpaceOnUse">
<stop stop-color="#1956C1"/>
<stop offset="1" stop-color="#E2403B"/>
</linearGradient>
<linearGradient id="paint7_linear_335_18109" x1="45.0967" y1="21.0626" x2="47.618" y2="21.0626" gradientUnits="userSpaceOnUse">
<stop stop-color="#1956C1"/>
<stop offset="1" stop-color="#E2403B"/>
</linearGradient>
<linearGradient id="paint8_linear_335_18109" x1="36.2139" y1="43.1876" x2="39.962" y2="43.1876" gradientUnits="userSpaceOnUse">
<stop stop-color="#1956C1"/>
<stop offset="1" stop-color="#E2403B"/>
</linearGradient>
<linearGradient id="paint9_linear_335_18109" x1="44.0576" y1="33.3485" x2="46.8754" y2="33.3485" gradientUnits="userSpaceOnUse">
<stop stop-color="#1956C1"/>
<stop offset="1" stop-color="#E2403B"/>
</linearGradient>
<linearGradient id="paint10_linear_335_18109" x1="30.6152" y1="46.1663" x2="34.6485" y2="46.1663" gradientUnits="userSpaceOnUse">
<stop stop-color="#1956C1"/>
<stop offset="1" stop-color="#E2403B"/>
</linearGradient>
<linearGradient id="paint11_linear_335_18109" x1="8.33301" y1="25.687" x2="16.2004" y2="25.687" gradientUnits="userSpaceOnUse">
<stop stop-color="#1956C1"/>
<stop offset="1" stop-color="#E2403B"/>
</linearGradient>
<linearGradient id="paint12_linear_335_18109" x1="16.7969" y1="25.6926" x2="26.0414" y2="25.6926" gradientUnits="userSpaceOnUse">
<stop stop-color="#1956C1"/>
<stop offset="1" stop-color="#E2403B"/>
</linearGradient>
<linearGradient id="paint13_linear_335_18109" x1="27.7832" y1="25.6875" x2="32.2099" y2="25.6875" gradientUnits="userSpaceOnUse">
<stop stop-color="#1956C1"/>
<stop offset="1" stop-color="#E2403B"/>
</linearGradient>
<linearGradient id="paint14_linear_335_18109" x1="34.3203" y1="25.6879" x2="41.667" y2="25.6879" gradientUnits="userSpaceOnUse">
<stop stop-color="#1956C1"/>
<stop offset="1" stop-color="#E2403B"/>
</linearGradient>
</defs>
</svg>

<svg version="1.2" xmlns="http://www.w3.org/2000/svg" viewBox="0 0 50 51" width="50" height="51"><style>.a{fill:#b4924a}</style><path class="a" d="m4.2 25.7c0-3.9 1.1-7.8 3.1-11.1 2.1-3.3 5.1-6 8.6-7.7 3.5-1.7 7.5-2.3 11.3-1.9 3.9 0.4 7.6 1.9 10.7 4.3h-3.2q-0.4 0-0.7 0.3-0.3 0.3-0.3 0.8 0 0.4 0.3 0.7 0.3 0.3 0.7 0.3h5.9c0.3 0 0.6-0.1 0.8-0.3 0.2-0.2 0.3-0.4 0.3-0.7v-5.9q0-0.2-0.1-0.4-0.1-0.2-0.2-0.4-0.2-0.1-0.4-0.2-0.2-0.1-0.4-0.1-0.2 0-0.4 0.1-0.2 0.1-0.3 0.2-0.2 0.2-0.2 0.4-0.1 0.2-0.1 0.4v3.5c-4.6-3.7-10.4-5.6-16.2-5.2-5.9 0.5-11.4 3.1-15.4 7.5-3.9 4.3-6.1 10-5.9 15.9 0.1 5.9 2.5 11.5 6.7 15.7q0.1 0.1 0.3 0.2 0.2 0.1 0.4 0.1 0.2 0 0.4-0.1 0.2-0.1 0.4-0.2 0.1-0.1 0.2-0.3 0.1-0.2 0.1-0.4 0-0.3-0.1-0.4-0.1-0.2-0.2-0.4c-2-1.9-3.5-4.2-4.6-6.7-1-2.6-1.5-5.3-1.5-8z"/><path class="a" d="m15.9 44.4q-0.9-0.4-1.7-0.9-0.4-0.2-0.8-0.1-0.4 0.1-0.7 0.4-0.2 0.4-0.1 0.8c0.1 0.3 0.2 0.5 0.5 0.7q0.9 0.5 1.9 1 0.2 0.1 0.4 0.1 0.2 0 0.4 0 0.2-0.1 0.3-0.3 0.2-0.1 0.3-0.3 0.1-0.2 0.1-0.4 0-0.2-0.1-0.4 0-0.2-0.2-0.3-0.1-0.2-0.3-0.3z"/><path class="a" d="m43.8 16.6q0 0.2 0.2 0.3 0.2 0.2 0.4 0.2 0.1 0.1 0.4 0.1 0.2 0 0.3-0.1 0.2-0.1 0.4-0.3 0.1-0.1 0.2-0.3 0-0.2 0-0.4 0-0.2-0.1-0.4-0.4-1-1-1.9-0.1-0.2-0.3-0.3-0.2-0.1-0.4-0.2c-0.2-0.1-0.5 0-0.7 0.1q-0.4 0.3-0.5 0.7-0.1 0.4 0.1 0.8 0.5 0.8 1 1.7z"/><path class="a" d="m27.5 46.4q-1 0.1-2 0.1-0.4 0-0.7 0.3-0.3 0.3-0.3 0.8 0 0.4 0.3 0.7 0.3 0.3 0.7 0.3 0 0 0 0 1.1 0 2.2-0.2 0.4 0 0.7-0.3 0.3-0.4 0.2-0.8 0-0.4-0.4-0.7-0.3-0.3-0.7-0.2z"/><path class="a" d="m21.5 46.2q-0.9-0.1-1.9-0.4-0.4-0.1-0.8 0.1-0.4 0.2-0.5 0.7-0.1 0.4 0.1 0.7 0.3 0.4 0.7 0.5 1 0.3 2.1 0.5 0.2 0 0.4 0 0.2-0.1 0.4-0.2 0.1-0.1 0.3-0.3 0.1-0.2 0.1-0.4 0-0.2 0-0.4-0.1-0.2-0.2-0.3-0.1-0.2-0.3-0.3-0.2-0.1-0.4-0.2z"/><path class="a" d="m46.9 25.2c-0.3 0-0.5 0.1-0.7 0.3q-0.4 0.3-0.4 0.7 0 1-0.1 2-0.1 0.4 0.2 0.7 0.3 0.4 0.7 0.4 0.1 0 0.1 0 0.4 0 0.7-0.2 0.3-0.3 0.4-0.7 0.1-1.1 0.1-2.1 0-0.3-0.1-0.4 0-0.2-0.2-0.4-0.1-0.1-0.3-0.2-0.2-0.1-0.4-0.1z"/><path class="a" d="m43.7 37.1q-0.4-0.2-0.8-0.2-0.4 0.1-0.7 0.5-0.5 0.8-1.1 1.6-0.2 0.1-0.2 0.3-0.1 0.2-0.1 0.4 0 0.2 0.1 0.4 0.1 0.2 0.3 0.3 0.1 0.2 0.3 0.2 0.2 0.1 0.5 0.1 0.2 0 0.3-0.1 0.2-0.1 0.4-0.3 0.7-0.9 1.3-1.8 0.1-0.1 0.1-0.3 0.1-0.2 0-0.4 0-0.2-0.1-0.4-0.1-0.2-0.3-0.3z"/><path class="a" d="m45.1 20.3q0.3 1 0.4 2 0.1 0.3 0.4 0.6 0.3 0.2 0.7 0.2 0.1 0 0.1 0 0.3 0 0.4-0.1 0.2-0.1 0.3-0.3 0.1-0.2 0.2-0.4 0-0.2 0-0.4-0.2-1.1-0.5-2.1-0.1-0.4-0.4-0.7-0.4-0.2-0.8-0.1-0.4 0.2-0.7 0.5-0.2 0.4-0.1 0.8z"/><path class="a" d="m38.3 41.8q-0.8 0.6-1.6 1.1-0.2 0.2-0.3 0.3-0.1 0.2-0.2 0.4 0 0.2 0 0.4 0.1 0.2 0.2 0.4 0.1 0.2 0.3 0.3 0.2 0.1 0.4 0.1 0.2 0.1 0.4 0 0.2 0 0.3-0.1 0.9-0.6 1.8-1.3 0.3-0.3 0.4-0.7 0-0.5-0.3-0.8-0.3-0.3-0.7-0.4-0.4 0-0.7 0.3z"/><path class="a" d="m46.2 31.4q-0.5-0.2-0.8 0-0.4 0.2-0.6 0.6-0.3 1-0.7 1.9 0 0.2 0 0.4 0 0.2 0 0.4 0.1 0.2 0.3 0.4 0.1 0.1 0.3 0.2 0.2 0.1 0.4 0.1 0.2 0 0.4-0.1 0.2-0.1 0.3-0.2 0.2-0.2 0.3-0.4 0.4-1 0.7-2 0.1-0.2 0.1-0.4 0-0.2-0.1-0.4-0.1-0.2-0.3-0.3-0.2-0.2-0.3-0.2z"/><path class="a" d="m33.2 44.8q-0.9 0.4-1.9 0.7-0.2 0.1-0.3 0.2-0.2 0.2-0.3 0.4-0.1 0.1-0.1 0.3 0 0.2 0.1 0.4 0 0.2 0.2 0.4 0.1 0.2 0.3 0.3 0.2 0 0.4 0.1 0.2 0 0.4-0.1 1-0.3 2-0.7 0.4-0.2 0.6-0.6 0.1-0.4 0-0.8-0.2-0.4-0.6-0.6-0.4-0.1-0.8 0z"/><path class="a" d="m16.2 23.6c0-1.7-1.1-3.1-2.9-3.5-0.9-0.3-1.9-0.1-2.8 0.3-0.9 0.4-1.6 1.1-2.1 2q-0.1 0.4 0 0.8 0.1 0.4 0.5 0.6 0.4 0.2 0.8 0 0.4-0.1 0.6-0.5c0.2-0.5 0.6-0.8 1.1-1 0.4-0.3 1-0.3 1.5-0.2 0.2 0.1 1.2 0.4 1.2 1.5 0 1-1.2 1.9-2.6 2.8-1.5 1-3.2 2.1-3.2 4q0 0.4 0.3 0.7 0.3 0.3 0.8 0.3h5.7q0.3 0 0.5-0.1 0.1 0 0.3-0.2 0.1-0.1 0.2-0.3 0.1-0.2 0.1-0.4 0-0.2-0.1-0.4-0.1-0.2-0.2-0.4-0.2-0.1-0.3-0.2-0.2-0.1-0.5-0.1h-4.1c0.5-0.4 1.1-0.8 1.7-1.2 1.6-1.1 3.5-2.3 3.5-4.5z"/><path class="a" d="m26 27c0-0.3-0.1-0.6-0.3-0.7q-0.3-0.3-0.7-0.4h-0.8v-5.5q0-0.3-0.2-0.6-0.2-0.3-0.5-0.4-0.4-0.1-0.7 0-0.3 0.1-0.5 0.4l-5.3 6.5q-0.2 0.3-0.2 0.6 0 0.3 0.1 0.5 0.1 0.3 0.4 0.5 0.2 0.1 0.5 0.1h4.3v3q0 0.2 0 0.4 0.1 0.2 0.3 0.3 0.1 0.2 0.3 0.2 0.2 0.1 0.4 0.1 0.2 0 0.4-0.1 0.2 0 0.4-0.2 0.1-0.1 0.2-0.3 0.1-0.2 0.1-0.4v-3h0.8q0.4 0 0.7-0.3 0.3-0.3 0.3-0.7zm-3.9-1.1h-2.1l2.1-2.5z"/><path class="a" d="m31.4 18.8q-0.2 0-0.4 0-0.2 0-0.4 0.2-0.2 0.1-0.3 0.2-0.1 0.2-0.2 0.4l-2.3 11.7q-0.1 0.5 0.2 0.8c0.1 0.3 0.3 0.4 0.6 0.5q0.1 0 0.2 0 0.4 0 0.7-0.2 0.3-0.3 0.3-0.6l2.4-11.8q0-0.2 0-0.4-0.1-0.2-0.2-0.3-0.1-0.2-0.3-0.3-0.1-0.2-0.3-0.2z"/><path class="a" d="m36.7 31.4q0.3 0 0.6-0.2 0.3-0.1 0.4-0.4l3.9-9.4q0.1-0.2 0.1-0.5-0.1-0.3-0.2-0.5-0.2-0.2-0.4-0.3-0.2-0.1-0.5-0.1h-5.2q-0.5 0-0.8 0.3-0.3 0.3-0.3 0.7 0 0.4 0.3 0.7 0.3 0.3 0.8 0.3h3.7l-3.3 8q-0.1 0.2-0.1 0.5 0 0.2 0.2 0.5 0.1 0.2 0.3 0.3 0.3 0.1 0.5 0.1z"/></svg>
